X:1
T:Shawneetown
M:2/2
L:1/8
K:F
 A4A-G F2| F6 F2| c4 c- d3| A3- G F2 z2| f2 f2-f-d-c c| d2 c2A-G-F F|\
 G3A-A-G F2| F2-D-C| D F3| A4A-G-F F| G2 F4 F2| c4 c- d3| A3- G- F2 z2|\
 f3f-f-d-c c| d3 cA-G FF| G2 A2-A-G F2| F4 z4|

